public/edit.svg

<svg width="16" height="16" viewBox="0 0 16 16" fill="none" xmlns="http://www.w3.org/2000/svg">
<path d="M10.9823 3.60534L12.3943 5.01667L10.9823 3.60534ZM11.8903 2.36201L8.07234 6.18001C7.87507 6.37701 7.74053 6.628 7.68567 6.90134L7.33301 8.66667L9.09834 8.31334C9.37167 8.25867 9.62234 8.12467 9.81967 7.92734L13.6377 4.10934C13.7524 3.99461 13.8434 3.8584 13.9055 3.7085C13.9676 3.55859 13.9996 3.39793 13.9996 3.23567C13.9996 3.07342 13.9676 2.91275 13.9055 2.76285C13.8434 2.61294 13.7524 2.47674 13.6377 2.36201C13.5229 2.24728 13.3867 2.15627 13.2368 2.09417C13.0869 2.03208 12.9263 2.00012 12.764 2.00012C12.6018 2.00012 12.4411 2.03208 12.2912 2.09417C12.1413 2.15627 12.0051 2.24728 11.8903 2.36201V2.36201Z" stroke="white" stroke-width="2" stroke-linecap="round" stroke-linejoin="round"/>
<path d="M12.6665 9.99998V12C12.6665 12.3536 12.526 12.6927 12.276 12.9428C12.0259 13.1928 11.6868 13.3333 11.3332 13.3333H3.99984C3.64622 13.3333 3.30708 13.1928 3.05703 12.9428C2.80698 12.6927 2.6665 12.3536 2.6665 12V4.66665C2.6665 4.31302 2.80698 3.97389 3.05703 3.72384C3.30708 3.47379 3.64622 3.33331 3.99984 3.33331H5.99984" stroke="white" stroke-width="2" stroke-linecap="round" stroke-linejoin="round"/>
</svg>

<svg width="16" height="16" fill="none" xmlns="http://www.w3.org/2000/svg"><path d="m10.982 3.605 1.412 1.412-1.412-1.412zm.908-1.243L8.072 6.18a1.412 1.412 0 0 0-.386.721l-.353 1.766 1.765-.354a1.41 1.41 0 0 0 .722-.386l3.818-3.818a1.236 1.236 0 0 0-1.748-1.747v0z" stroke="#fff" stroke-width="2" stroke-linecap="round" stroke-linejoin="round"/><path d="M12.666 10v2a1.334 1.334 0 0 1-1.333 1.333H4A1.334 1.334 0 0 1 2.667 12V4.667A1.333 1.333 0 0 1 4 3.333h2" stroke="#fff" stroke-width="2" stroke-linecap="round" stroke-linejoin="round"/></svg>
